img/icons/delete.svg

<svg width="21" height="20" viewBox="0 0 21 20" fill="none" xmlns="http://www.w3.org/2000/svg">
<path d="M17.6928 4.3H2.99282C2.69282 4.3 2.39282 4.5 2.39282 4.8C2.39282 5.1 2.69282 5.4 2.99282 5.4H4.69282V17.4C4.69282 17.7 4.99282 18 5.29282 18H15.4928C15.7928 18 16.0928 17.7 16.0928 17.4V5.4H17.7928C18.0928 5.4 18.3928 5.1 18.3928 4.8C18.3928 4.5 17.9928 4.3 17.6928 4.3ZM14.8928 16.8H5.79282V5.4H14.8928V16.8Z" fill="black"/>
<path d="M8.59282 3.2H11.9928C12.2928 3.2 12.5928 2.9 12.5928 2.6C12.5928 2.3 12.3928 2 12.0928 2H8.59282C8.29282 2 8.09282 2.3 8.09282 2.6C8.09282 2.9 8.29282 3.2 8.59282 3.2Z" fill="black"/>
<path d="M8.59282 14C8.89282 14 9.19282 13.7 9.19282 13.4V7.7C9.19282 7.4 8.89282 7.1 8.59282 7.1C8.29282 7.1 7.99282 7.4 7.99282 7.7V13.4C8.09282 13.7 8.29282 14 8.59282 14Z" fill="black"/>
<path d="M12.0928 14C12.3928 14 12.6928 13.7 12.6928 13.4V7.7C12.6928 7.4 12.3928 7.1 12.0928 7.1C11.7928 7.1 11.4928 7.5 11.4928 7.7V13.4C11.4928 13.7 11.6928 14 12.0928 14Z" fill="black"/>
</svg>

<svg width="21" height="20" fill="none" xmlns="http://www.w3.org/2000/svg"><path d="M17.7 4.3H3c-.3 0-.6.2-.6.5s.3.6.6.6h1.7v12c0 .3.3.6.6.6h10.2c.3 0 .6-.3.6-.6v-12h1.7c.3 0 .6-.3.6-.6s-.4-.5-.7-.5Zm-2.8 12.5H5.8V5.4h9.1v11.4ZM8.6 3.2H12c.3 0 .6-.3.6-.6s-.2-.6-.5-.6H8.6c-.3 0-.5.3-.5.6s.2.6.5.6Z" fill="#000"/><path d="M8.6 14c.3 0 .6-.3.6-.6V7.7c0-.3-.3-.6-.6-.6s-.6.3-.6.6v5.7c.1.3.3.6.6.6ZM12.1 14c.3 0 .6-.3.6-.6V7.7c0-.3-.3-.6-.6-.6s-.6.4-.6.6v5.7c0 .3.2.6.6.6Z" fill="#000"/></svg>
